settings/logo.svg

<?xml version="1.0" encoding="UTF-8"?>
<svg width="155px" height="155px" viewBox="0 0 155 155" version="1.1" xmlns="http://www.w3.org/2000/svg" xmlns:xlink="http://www.w3.org/1999/xlink">
    <!-- Generator: Sketch 64 (93537) - https://sketch.com -->
    <title>mark</title>
    <desc>Created with Sketch.</desc>
    <defs>
        <radialGradient cx="16%" cy="16%" fx="16%" fy="16%" r="100%" id="radialGradient-1">
            <stop stop-color="#FF3344" offset="0%"></stop>
            <stop stop-color="#660000" offset="100%"></stop>
        </radialGradient>
    </defs>
    <g id="Cover" stroke="none" stroke-width="1" fill="none" fill-rule="evenodd">
        <g id="Artboard" transform="translate(-301.000000, -139.000000)" fill-rule="nonzero">
            <g id="mark" transform="translate(301.000000, 139.000000)">
                <circle id="Oval" fill="url(#radialGradient-1)" cx="77.5" cy="77.5" r="77.5"></circle>
                <path d="M44.4328893,34 L50.5194671,34 L50.5194671,123 L44.4328893,123 L44.4328893,34 Z M21.6812612,66.6503552 C21.7762119,61.00153 31.5293443,60.906694 31.5293443,66.460683 L31.5293443,71.204918 L38.9622731,71.204918 L38.9622731,66.7476229 C39.9215178,51.8097267 14,51.8097267 14,66.3634153 L14,92.1223498 C14,106.676038 39.9215178,107.057814 38.9622731,92.1223498 L38.9622731,86.5294536 L31.5293443,86.5294536 L31.5293443,92.4117213 C31.5293443,98.1578142 21.6812612,98.1578142 21.6812612,92.4117213 L21.6812612,66.6503552 Z M69.107876,57.0743442 C71.5768375,55.7535257 74.5186429,55.6475941 77.0764237,56.7874043 C80.5335999,58.3193716 81.9237743,61.9596175 81.9237743,65.9816393 L81.9237743,96.2392076 L86.7930365,96.2392076 L86.7930365,102.075273 L74.3764178,102.075273 L74.3764178,65.5998634 C74.3764178,60.3303825 65.7602582,60.4276502 65.8552087,65.5998634 L65.8552087,102.075273 L54.3247957,102.075273 L54.3247957,96.2392076 L58.1642089,96.2392076 L58.1642089,61.9523224 L53.1975615,61.9523224 L53.1975615,57.0889345 L64.3968647,57.0889345 L64.3968647,60.8969672 C65.6622265,59.2878938 67.2718416,57.9818152 69.107876,57.0743442 L69.107876,57.0743442 Z M125.467152,101.122049 C126.794124,101.602573 128.194532,101.849406 129.606025,101.851557 L137,101.851557 L137,96.2586612 L132.286554,96.2586612 C131.265046,96.3907832 130.238198,96.0571153 129.490068,95.349959 C128.741937,94.6428028 128.351831,93.6371239 128.427664,92.6111202 L128.427664,61.971776 L135.171592,61.971776 L135.171592,57.1083879 L128.427664,57.1083879 L128.427664,44.4635792 L120.636844,44.4635792 L120.636844,91.7503005 C120.92413,95.8695901 122.007541,99.6022404 125.464718,101.131776 L125.467152,101.122049 Z M107.129511,92.4068579 C107.129511,98.1529509 96.5339958,98.1529509 96.5339958,92.4068579 L96.5339958,80.2021858 L112.797332,80.2021858 C113.566675,80.2021858 113.819877,79.8666121 113.819877,79.0981967 L113.819877,66.7476229 C114.306803,51.8097267 88.7431761,51.8097267 88.7431761,66.3634153 L88.7431761,92.1223498 C88.7431761,106.676038 114.779122,107.057814 113.819877,92.1223498 L113.819877,86.5294536 L107.13438,86.5294536 L107.129511,92.4068579 Z M96.5339958,66.3634153 C96.5339958,60.8069946 106.515983,60.5273498 106.515983,66.0764754 L106.515983,74.1229509 L96.5339958,74.1229509 L96.5339958,66.3634153 Z" id="shadow" fill="#112233"></path>
                <path d="M44.4455446,36 L50.5346535,36 L50.5346535,125 L44.4455446,125 L44.4455446,36 Z M21.6844554,68.6503552 C21.7794455,63.00153 31.5366337,62.906694 31.5366337,68.460683 L31.5366337,73.204918 L38.9726535,73.204918 L38.9726535,68.7476229 C39.932297,53.8097267 14,53.8097267 14,68.3634153 L14,94.1223498 C14,108.676038 39.932297,109.057814 38.9726535,94.1223498 L38.9726535,88.5294536 L31.5366337,88.5294536 L31.5366337,94.4117213 C31.5366337,100.157814 21.6844554,100.157814 21.6844554,94.4117213 L21.6844554,68.6503552 Z M69.1307921,59.0743442 C71.6007804,57.7535257 74.5438091,57.6475941 77.1026535,58.7874043 C80.5612673,60.3193716 81.9520198,63.9596175 81.9520198,67.9816393 L81.9520198,98.2392076 L86.8233069,98.2392076 L86.8233069,104.075273 L74.4015248,104.075273 L74.4015248,67.5998634 C74.4015248,62.3303825 65.7817822,62.4276502 65.8767723,67.5998634 L65.8767723,104.075273 L54.3415644,104.075273 L54.3415644,98.2392076 L58.1825743,98.2392076 L58.1825743,63.9523224 L53.2138614,63.9523224 L53.2138614,59.0889345 L64.4178218,59.0889345 L64.4178218,62.8969672 C65.6837099,61.2878938 67.2939942,59.9818152 69.1307921,59.0743442 L69.1307921,59.0743442 Z M125.513505,103.122049 C126.76241,103.629075 128.101538,103.877272 129.449505,103.851557 L137,103.851557 L137,98.2586612 L132.335743,98.2586612 C131.313809,98.3907832 130.286536,98.0571153 129.538093,97.349959 C128.789651,96.6428028 128.399383,95.6371239 128.475248,94.6111202 L128.475248,63.971776 L135.051485,63.971776 L135.051485,59.1083879 L128.475248,59.1083879 L128.475248,46.4635792 L120.681188,46.4635792 L120.681188,93.6384426 C120.968594,97.7577323 121.850297,101.599809 125.308911,103.122049 L125.513505,103.122049 Z M107.168238,94.4068579 C107.168238,100.152951 96.5683168,100.152951 96.5683168,94.4068579 L96.5683168,82.2021858 L112.838416,82.2021858 C113.608079,82.2021858 113.861386,81.8666121 113.861386,81.0981967 L113.861386,68.7476229 C114.348515,53.8097267 88.7742574,53.8097267 88.7742574,68.3634153 L88.7742574,94.1223498 C88.7742574,108.676038 114.82103,109.057814 113.861386,94.1223498 L113.861386,88.5294536 L107.173109,88.5294536 L107.168238,94.4068579 Z M96.5683168,68.3634153 C96.5683168,62.8069946 106.554455,62.5273498 106.554455,68.0764754 L106.554455,76.1229509 L96.5683168,76.1229509 L96.5683168,68.3634153 Z" id="characters" fill="#FFFFFF"></path>
            </g>
        </g>
    </g>
</svg>

<svg width="155" height="155" viewBox="0 0 155 155" xmlns="http://www.w3.org/2000/svg"><title>mark</title><defs><radialGradient cx="16%" cy="16%" fx="16%" fy="16%" r="100%" id="a"><stop stop-color="#F34" offset="0%"/><stop stop-color="#600" offset="100%"/></radialGradient></defs><g fill-rule="nonzero" fill="none"><circle fill="url(#a)" cx="77.5" cy="77.5" r="77.5"/><path d="M44.433 34h6.086v89h-6.086V34zM21.68 66.65c.095-5.648 9.848-5.743 9.848-.19v4.745h7.433v-4.457C39.922 51.81 14 51.81 14 66.363v25.76c0 14.553 25.922 14.935 24.962 0v-5.594H31.53v5.883c0 5.746-9.848 5.746-9.848 0V66.65zm47.427-9.576a9.069 9.069 0 017.968-.287c3.458 1.532 4.848 5.173 4.848 9.195v30.257h4.869v5.836H74.376V65.6c0-5.27-8.616-5.172-8.52 0v36.475H54.324V96.24h3.84V61.952h-4.967V57.09h11.199v3.808a13.735 13.735 0 014.71-3.823zm56.36 44.048a12.21 12.21 0 004.138.73H137v-5.593h-4.713a3.43 3.43 0 01-2.797-.909 3.422 3.422 0 01-1.062-2.739v-30.64h6.744v-4.863h-6.744V44.464h-7.791V91.75c.287 4.12 1.37 7.852 4.828 9.382l.002-.01zm-18.338-8.715c0 5.746-10.596 5.746-10.596 0V80.202h16.263c.77 0 1.023-.335 1.023-1.104v-12.35c.487-14.938-25.077-14.938-25.077-.385v25.76c0 14.553 26.036 14.935 25.077 0v-5.594h-6.686l-.004 5.878zM96.534 66.363c0-5.556 9.982-5.836 9.982-.287v8.047h-9.982v-7.76z" fill="#123"/><path d="M44.446 36h6.089v89h-6.09V36zM21.684 68.65c.095-5.648 9.853-5.743 9.853-.19v4.745h7.436v-4.457C39.933 53.81 14 53.81 14 68.363v25.76c0 14.553 25.932 14.935 24.973 0v-5.594h-7.436v5.883c0 5.746-9.853 5.746-9.853 0V68.65zm47.447-9.576a9.076 9.076 0 017.972-.287c3.458 1.532 4.849 5.173 4.849 9.195v30.257h4.871v5.836H74.402V67.6c0-5.27-8.62-5.172-8.525 0v36.475H54.342V98.24h3.84V63.952h-4.968V59.09h11.204v3.808a13.74 13.74 0 014.713-3.823zm56.383 44.048a9.959 9.959 0 003.936.73H137v-5.593h-4.664a3.433 3.433 0 01-2.798-.909 3.42 3.42 0 01-1.063-2.739v-30.64h6.576v-4.863h-6.576V46.464h-7.794v47.174c.288 4.12 1.17 7.962 4.628 9.484h.205zm-18.346-8.715c0 5.746-10.6 5.746-10.6 0V82.202h16.27c.77 0 1.023-.335 1.023-1.104v-12.35c.488-14.938-25.087-14.938-25.087-.385v25.76c0 14.553 26.047 14.935 25.087 0v-5.594h-6.688l-.005 5.878zm-10.6-26.044c0-5.556 9.986-5.836 9.986-.287v8.047h-9.986v-7.76z" fill="#FFF"/></g></svg>
